Sources/FrostedUI/Resources/Icons.xcassets/beakerFilled12.imageset/beaker-filled-12.svg

<svg width="12" height="12" viewBox="0 0 12 12" fill="none" xmlns="http://www.w3.org/2000/svg" data-fui-icon="true">
  <g clip-path="url(#clip0_6191_401)">
    <path
      d="M9.24976 0C9.66397 0 9.99976 0.335786 9.99976 0.75C9.99976 1.16421 9.66397 1.5 9.24976 1.5H8.49976V4.69238C8.49979 4.74243 8.5146 4.79161 8.54272 4.83301L11.5574 9.26562C12.3474 10.4275 11.5151 12 10.1101 12H1.8894C0.579293 11.9999 -0.232604 10.6325 0.304443 9.50586L0.289795 9.5127L0.327881 9.45898C0.361439 9.39362 0.399133 9.32887 0.442139 9.26562L3.45679 4.83301C3.48495 4.7916 3.49972 4.74246 3.49976 4.69238V1.5H2.74976C2.33562 1.49991 1.99976 1.16416 1.99976 0.75C1.99976 0.335844 2.33562 9.40857e-05 2.74976 0H9.24976ZM4.46167 8.13965C4.08461 8.08041 3.57992 8.10855 2.82593 8.42676L1.68237 10.1094C1.56964 10.2753 1.68883 10.4999 1.8894 10.5H10.1101C10.3108 10.5 10.43 10.2754 10.3171 10.1094L9.34155 8.6748C8.61358 9.01779 7.98002 9.15717 7.3894 9.13184C6.66935 9.10088 6.10601 8.82953 5.66382 8.6084C5.19852 8.37571 4.87074 8.204 4.46167 8.13965Z"
      fill="currentColor"
    />
  </g>
  <defs>
    <clipPath id="clip0_6191_401"><path fill="currentColor" d="M0 0H12V12H0z" /></clipPath>
  </defs>
</svg>

<svg xmlns="http://www.w3.org/2000/svg" width="12" height="12" fill="none" data-fui-icon="true" viewBox="0 0 12 12"><g clip-path="url(#a)"><path fill="currentColor" d="M9.25 0a.75.75 0 0 1 0 1.5H8.5v3.192c0 .05.015.1.043.141l3.014 4.433c.79 1.162-.042 2.734-1.447 2.734H1.89C.58 12-.234 10.633.303 9.506l-.014.007.038-.054q.05-.098.114-.193l3.015-4.433a.25.25 0 0 0 .043-.14V1.5h-.75a.75.75 0 0 1 0-1.5zM4.462 8.14c-.377-.06-.882-.031-1.636.287l-1.144 1.682a.25.25 0 0 0 .207.391h8.221c.2 0 .32-.225.207-.39l-.975-1.435c-.728.343-1.362.482-1.953.457-.72-.031-1.283-.302-1.725-.524-.465-.232-.793-.404-1.202-.468"/></g><defs><clipPath id="a"><path fill="currentColor" d="M0 0h12v12H0z"/></clipPath></defs></svg>
